gui/resources/file_sharing/content_filetype_pdf.svg

<svg width="44" height="44" viewBox="0 0 44 44" fill="none" xmlns="http://www.w3.org/2000/svg">
<path fill-rule="evenodd" clip-rule="evenodd" d="M14 9H24.741V15.212C24.741 15.4772 24.8464 15.7316 25.0339 15.9191C25.2214 16.1066 25.4758 16.212 25.741 16.212H32V33C32 33.5304 31.7893 34.0391 31.4142 34.4142C31.0391 34.7893 30.5304 35 30 35H14C13.4696 35 12.9609 34.7893 12.5858 34.4142C12.2107 34.0391 12 33.5304 12 33V11C12 10.4696 12.2107 9.96086 12.5858 9.58579C12.9609 9.21071 13.4696 9 14 9V9ZM25.5 9L32 15.5H26.5C26.2348 15.5 25.9804 15.3946 25.7929 15.2071C25.6054 15.0196 25.5 14.7652 25.5 14.5V9ZM14.245 28V21.46H16.305C16.665 21.46 17 21.493 17.31 21.56C17.62 21.627 17.888 21.74 18.115 21.9C18.342 22.06 18.518 22.268 18.645 22.525C18.772 22.782 18.835 23.1 18.835 23.48C18.835 23.84 18.772 24.153 18.645 24.42C18.5241 24.6794 18.3443 24.9071 18.12 25.085C17.8858 25.2671 17.617 25.3998 17.33 25.475C17.0088 25.5606 16.6775 25.6027 16.345 25.6H15.405V28H14.245V28ZM15.405 24.67H16.255C17.215 24.67 17.695 24.273 17.695 23.48C17.695 23.067 17.57 22.782 17.32 22.625C17.07 22.468 16.702 22.39 16.215 22.39H15.405V24.67ZM20.065 28V21.46H21.815C22.815 21.46 23.595 21.73 24.155 22.27C24.715 22.81 24.995 23.62 24.995 24.7C24.995 25.24 24.923 25.717 24.78 26.13C24.637 26.543 24.43 26.888 24.16 27.165C23.89 27.442 23.563 27.65 23.18 27.79C22.797 27.93 22.362 28 21.875 28H20.065ZM21.225 27.06H21.735C22.402 27.06 22.913 26.868 23.27 26.485C23.627 26.102 23.805 25.507 23.805 24.7C23.805 23.9 23.625 23.317 23.265 22.95C22.905 22.583 22.395 22.4 21.735 22.4H21.225V27.06ZM26.315 28V21.46H30.265V22.44H27.475V24.29H29.855V25.27H27.475V28H26.315Z" fill="white"/>
</svg>

<svg xmlns="http://www.w3.org/2000/svg" width="44" height="44" viewBox="0 0 44 44">
    <g fill="none" fill-rule="evenodd">
        <circle cx="22" cy="22" r="22" fill="#F96657"/>
        <path d="M6 6h32v32H6z"/>
        <path fill="#FFF" d="M14 9h10.741v6.212a1 1 0 0 0 1 1H32V33a2 2 0 0 1-2 2H14a2 2 0 0 1-2-2V11a2 2 0 0 1 2-2zm11.5 0l6.5 6.5h-5.5a1 1 0 0 1-1-1V9zM14.245 28v-6.54h2.06c.36 0 .695.033 1.005.1.31.067.578.18.805.34.227.16.403.368.53.625s.19.575.19.955c0 .36-.063.673-.19.94a1.842 1.842 0 0 1-.525.665 2.193 2.193 0 0 1-.79.39 3.707 3.707 0 0 1-.985.125h-.94V28h-1.16zm1.16-3.33h.85c.96 0 1.44-.397 1.44-1.19 0-.413-.125-.698-.375-.855-.25-.157-.618-.235-1.105-.235h-.81v2.28zm4.66 3.33v-6.54h1.75c1 0 1.78.27 2.34.81.56.54.84 1.35.84 2.43 0 .54-.072 1.017-.215 1.43-.143.413-.35.758-.62 1.035-.27.277-.597.485-.98.625s-.818.21-1.305.21h-1.81zm1.16-.94h.51c.667 0 1.178-.192 1.535-.575.357-.383.535-.978.535-1.785 0-.8-.18-1.383-.54-1.75-.36-.367-.87-.55-1.53-.55h-.51v4.66zm5.09.94v-6.54h3.95v.98h-2.79v1.85h2.38v.98h-2.38V28h-1.16z"/>
    </g>
</svg>
